assets/like.svg

<svg width="26" height="24" viewBox="0 0 26 24" fill="none" xmlns="http://www.w3.org/2000/svg">
<path d="M2.93415 13.5443L12.3152 22.3569C12.6397 22.6616 12.8019 22.814 12.9999 22.814C13.1979 22.814 13.3602 22.6616 13.6846 22.3569L23.0657 13.5443C25.6739 11.0942 25.9907 7.06217 23.797 4.2348L23.3845 3.70316C20.7603 0.320813 15.4928 0.88806 13.6488 4.75157C13.3883 5.29732 12.6115 5.29732 12.351 4.75157C10.5071 0.88806 5.23955 0.320813 2.61531 3.70316L2.20284 4.2348C0.00918293 7.06217 0.325915 11.0942 2.93415 13.5443Z" stroke="#919191" stroke-opacity="0.77" stroke-width="1.4"/>
</svg>

<svg width="26" height="24" viewBox="0 0 26 24" fill="none" xmlns="http://www.w3.org/2000/svg">
  <path
    d="m2.934 13.544 9.381 8.813c.325.305.487.457.685.457.198 0 .36-.152.685-.457l9.38-8.813a6.938 6.938 0 0 0 .732-9.31l-.413-.53C20.76.32 15.493.887 13.65 4.751a.719.719 0 0 1-1.298 0C10.507.888 5.24.32 2.615 3.703l-.412.532a6.938 6.938 0 0 0 .731 9.31Z"
    stroke="#919191" stroke-opacity=".77" stroke-width="1.4" />
</svg>
